!!!COM: Scarlatti, Domenico
!!!CDT: 1685///-1757///
!!!OTL: Sonata in C Major, K.461, L.8
!!!SCT: K. 461
!!!SCT: L. 008
**kern	**kern	**dynam
*staff2	*staff1	*staff1/2
*Icemba	*Icemba	*Icemba
*clefG2	*clefG2	*clefG2
*>[A,A,B,B]	*>[A,A,B,B]	*>[A,A,B,B]
*>norep[A,B]	*>norep[A,B]	*>norep[A,B]
*>A	*>A	*>A
*k[]	*k[]	*k[]
*C:	*C:	*C:
*M3/8	*M3/8	*M3/8
*MM132	*MM132	*MM132
=1-	=1-	=1-
(8cc\L	(8ee\L	p
8b\	8dd\	.
8cc\J)	8ee\J)	.
=2	=2	=2
.	(ddq/	.
4.g/	4.dd\)	.
*clefF4	*	*
=3	=3	=3
(8c\L	(8e/L	.
8B\	8d/	.
8c\J)	8e/J)	.
=4	=4	=4
.	(eq/	.
4.G\	4.d/)	<
=5	=5	=5
8E\ (8c\L	4.r	.
8F\ 8d\)	.	.
8G'\ 8e'\J	.	.
=6	=6	=6
*^	*	*
(4f/	8A\L	8r	.
.	8B\	(8ddd\L	mf
8e/)	8c\J	8ccc\J)	p
*v	*v	*	*
=7	=7	=7
8E\ (8c\L	4.r	.
8F\ 8d\)	.	.
8G'\ 8e'\J	.	.
=8	=8	=8
*^	*	*
4f/	(8A\L	8r	.
.	8B'\	(8ddd\L	mf
8e/	8c\J)	8ccc\J)	.
*v	*v	*	*
=9	=9	=9
16f\LL	(16g\LL	p
16e\	16a\	.
16d\	16b\	.
16c\	16cc\	.
16B\	16dd\	.
16A\JJ	16ee\JJ	.
=10	=10	=10
.	ggq/	.
16G/LL	4ff\	.
16GG/	.	.
16BB/	.	.
16D/J	.	.
8C'/J	8ee'\)	.
=11	=11	=11
16f\LL	(16g\LL	.
16e\	16a\	.
16d\	16b\	.
16c\	16cc\	.
16B\	16dd\	.
16A\JJ	16ee\JJ	.
=12	=12	=12
.	ggq/	.
16G/LL	4ff\	.
16GG/	.	.
16BB/	.	.
16D/J	.	.
8C'/J	8ee'\)	.
=13	=13	=13
16d\LL	(16e/LL	.
16c\	16f#/	.
16B\	16g#/	.
16A\	16a/	.
16G#\	16b/	.
16F#\JJ	16cc/JJ	.
=14	=14	=14
.	eeq/	.
16E/LL	4dd\	.
16EE/	.	.
16GG#/	.	.
16BB/J	.	.
8AA'/J	8cc'\)	.
=15	=15	=15
16d\LL	16e/LL	.
16c\	(16f#/	.
16B\	16g#/	.
16A\	16a/	.
16G#\	16b/	.
16F#\JJ	16cc/JJ	.
=16	=16	=16
.	eeq/	.
16E/LL	4dd\	.
16EE/	.	.
16GG#/	.	.
16BB/J	.	.
8AA'/J	8cc'\)	.
*clefG2	*	*
=17	=17	=17
8aa\L	(16ccc'\LL	mf
.	16ddd\	.
8gg\	16eee\	.
.	16bb\	.
8ff#\J	16aa\	.
.	16bb\JJ	.
=18	=18	=18
8ee\L	16ccc\LL	.
.	16gg\	.
8dd#\	16ff#\	.
.	16gg\	.
8ccn\J	16aa\	.
.	16ee\JJ	.
=19	=19	=19
8b/L	16dd#\LL	.
.	16ee\	.
8a/	16ff#\	.
.	16cc\	.
8g#/J	16b\	.
.	16cc\JJ	.
=20	=20	=20
8fn/L	16ddn/LL	p
.	16a/	.
8e/	16g#/	.
.	16a/	.
8d/J	16b/	.
.	16fn/JJ	.
=21	=21	=21
8c#/L	16e/LL	.
.	16f/	.
8B-/J	16g/	.
.	16d/JJ)	.
8A/	16ee\LL	f
.	(16ff\JJ	.
=22	=22	=22
8b-/L	16gg\LL	.
.	16dd\	.
8a/	16cc#\	.
.	16dd\	.
8g/J	16ee\	.
.	16b-\JJ	.
=23	=23	=23
8f/L	16a/LL	>
.	16b-/	.
8e-/	16ccn/	.
.	16g/	.
8d/J	16f#/	.
.	16g/JJ)	.
*clefF4	*	*
=24	=24	=24
8c\L	(16a/LL	.
.	16e-/	.
8B-\	16d/	.
.	16g/	.
8A\J	16c/	.
.	16f#/JJ	.
=25	=25	=25
8G\L	16B-/LL	.
.	16c/	.
8Fn\	16d/	.
.	16A/	.
8E-\J	16G/)	.
.	([16g/JJ	mf
=26	=26	=26
4.D\	16g/LL]	.
.	16a/	.
.	16f#/	.
.	16d/	.
.	16c#/)	.
.	([16g/JJ	.
=27	=27	=27
4.DD^/	16g/LL]	.
.	16a/	.
.	16f#/	.
.	16d/	.
.	16cc#/	.
.	[16gg/JJ	.
=28	=28	=28
4.DD^/	8gg\L]	.
.	16ff#\L	.
.	16ee\J	.
.	8dd\J)	.
=29	=29	=29
16d\LL	(16f#/LL	p
16c\	16g/	.
16B\	16a/	.
16A\	16b/	.
16G\	16cc/	.
16F#\JJ	16dd/JJ	.
=30	=30	=30
16G\LL	16b\LL	.
16F#\	16cc\	.
16E\	16dd\	.
16D\	16ee\	.
16C\	16ff#\	.
16BB\JJ	16gg\JJ)	.
=31	=31	=31
16d\LL	(16f#/LL	.
16c\	16g/	.
16B\	16a/	.
16A\	16b/	.
16G\	16cc/	.
16F#\JJ	16dd/JJ	.
=32	=32	=32
16G\LL	16b\LL	.
16F#\	16cc\	.
16E\	16dd\	.
16D\	16ee\	.
16C\	16ff#\	.
16BB\JJ	16gg\JJ)	.
=33	=33	=33
16C/LL	(16ee\LL	<
16BB/	16ff#\	.
16AA/	16gg\	.
16GG/	16aa\	.
16FF#/	16bb\	.
16EE/JJ	16ccc\JJ	.
=34	=34	=34
4DD/	16dd\LL	.
.	16ccc\	.
.	16bb\	.
.	16aa\	.
8GG/	16bb\	.
.	16gg\JJ)	.
=35	=35	=35
*	*^	*
8C/L	(16ee/LL	8cc\L	f
.	16aa/	.	.
8D/	16dd/	8b\	.
.	16gg/	.	.
8DD'/J	16cc/	8a\J	.
.	16ff#/JJ	.	.
*	*v	*v	*
=36	=36	=36
4.GG/	16gg\LL	.
.	16dd\	>
.	16b\	.
.	16dd\	.
.	16g\	.
.	16ee\JJ)	.
=37	=37	=37
16d\LL	(16f#/LL	p
16c\	16g/	.
16B\	16a/	.
16A\	16b/	.
16G\	16cc/	.
16F#\JJ	16dd/JJ	.
=38	=38	=38
16G\LL	16b\LL	.
16F#\	16cc\	.
16E\	16dd\	.
16D\	16ee\	.
16C\	16ff#\	.
16BB\JJ	16gg\JJ)	.
=39	=39	=39
16d\LL	16f#\LL	.
16c\	(16g\	.
16B\	16a\	.
16A\	16b\	.
16G\	16cc\	.
16F\JJ	16dd\JJ	.
=40	=40	=40
16G\LL	16b\LL	.
16F#\	16cc\	.
16E\	16dd\	.
16D\	16ee\	.
16C\	16ff#\	.
16BB\JJ	16gg\JJ)	.
=41	=41	=41
16C/LL	(16ee\LL	<
16BB/	16ff#\	.
16AA/	16gg\	.
16GG/	16aa\	.
16FF#/	16bb\	.
16EE/JJ	16ccc\JJ	.
=42	=42	=42
4DD/	16dd\LL	.
.	16ccc\	.
.	16bb\	.
.	16aa\	.
8GG/	16bb\	.
.	16gg\JJ)	.
=43	=43	=43
*	*^	*
8C/L	(16ee/LL	8cc\L	f
.	16aa/	.	.
8D/	16dd/	8b\	.
.	16gg/	.	.
8DD'/J	16cc/	8a\J	.
.	16ff#/JJ	.	.
*	*v	*v	*
=44	=44	=44
16GG'/	8b'\ 8gg'\)	.
(16f#\LL	.	.
16g\	8r	.
16d\	.	.
16e\	8r	.
16B\JJ	.	.
=45	=45	=45
16c\LL	8r	.
16e\	.	.
16d\	8gg'\ 8aa'\L	.
16c\	.	.
16B\	8ff#'\ 8ccc'\J	.
16A\JJ	.	.
=46	=46	=46
16G\LL)	8gg'\ 8bb'\	.
(16f#\	.	.
16g\	8r	.
16d\	.	.
16e\	8r	.
16B\JJ	.	.
=47	=47	=47
16c\LL	8r	.
16e\	.	.
16d\	8gg'\ 8aa'\L	.
16c\	.	.
16B\	8ff#'\ 8ccc'\J	.
16A\JJ	.	.
=48	=48	=48
16G\LL)	8gg'\ 8bb'\	.
(16f#\	.	.
16g\	8r	.
16d\	.	.
16e\	8r	.
16B\JJ	.	.
=49	=49	=49
16c\LL	8r	.
16e\	.	.
16d\	8gg'\ 8aa'\L	.
16c\	.	.
16B\	8ff#'\ 8ccc'\J	.
16A\JJ	.	.
=50	=50	=50
8G\L	16bb\LL	.
.	16ff#\	.
8B\)	16gg\	.
.	16dd\	.
8c'\J	16ee\	.
.	16b\JJ	.
=51	=51	=51
8C'/L	16cc\LL	.
.	16ee\	.
(8D/	16dd\	.
.	16cc\	.
8DD/J	16b\	.
.	16a\JJ	.
=52	=52	=52
8GG/L	16g/LL	.
.	16f#/	.
8BB/)	16g/	.
.	16d/	.
8C'/J	16e/	.
.	16B/JJ	.
=53	=53	=53
8CC'/	16c/LL	.
.	16e/	.
(4DD/	16d/	.
.	16c/	.
.	16B/	.
.	16A/JJ	.
=54	=54	=54
4.GGG/)	4.G/	.
=55:|!|:	=55:|!|:	=55:|!|:
*>B	*>B	*>B
*k[b-e-]	*k[b-e-]	*k[b-e-]
(16G\LL	8r	.
16d\	.	.
16B-\	8dd'\L	p
16d\	.	.
16G\	8dd'\J	.
16d\JJ)	.	.
=56	=56	=56
(16F#\LL	(8dd^\L	<
16d\	.	.
16A\	8cc'\) 8dd'\	.
16d\	.	.
16F#\	8cc'\ 8dd'\J	.
16d\JJ)	.	.
=57	=57	=57
(16G\LL	(8cc^\ 8dd^\L	.
16d\	.	.
16B-\	8b-'\) 8dd'\	.
16d\	.	.
16G\	8b-'\ 8dd'\J	.
16d\JJ)	.	.
=58	=58	=58
(16D\LL	(8b-^\ 8dd^\L	.
16d\	.	.
16A\	8a'\) 8dd'\	.
16d\	.	.
16D\	8a'\ 8dd'\J	.
16d\JJ)	.	.
=59	=59	=59
(16E-\LL	(8a^/ 8dd^/L	mf
16G\	.	.
16c\	8g'/) 8cc'/	>
16G\	.	.
16E-\	8g'/ 8cc'/J	.
16c\JJ)	.	.
=60	=60	=60
(16D\LL	8g^/ (8b-^/L	.
16d\	.	.
16A\	8g'/ 8a'/)	.
16d\	.	.
16D\	8f#'/ 8a'/J	.
16d\JJ)	.	.
=61	=61	=61
(16G\LL	8g'/ 8b-'/	p
16d\	.	.
16B-\	8dd'\L	.
16d\	.	.
16G\	8dd'\J	.
16d\JJ)	.	.
=62	=62	=62
16F#\LL	(8dd^\L	.
16d\	.	.
16A\	8cc'\) 8dd'\	.
16d\	.	.
16F#\	8cc'\ 8dd'\J	.
16d\JJ	.	.
=63	=63	=63
(16G\LL	(8cc^\ 8dd^\L	.
16d\	.	.
16B-\	8b-'\) 8dd'\	.
16d\	.	.
16G\	8b-'\ 8dd'\J	.
16d\JJ)	.	.
=64	=64	=64
(16D\LL	8b-^\ (8dd^\L	.
16d\	.	.
16B-\	8a-'\ 8ff'\)	.
16d\	.	.
16D\	8a-'\ 8ff'\J	.
16d\JJ)	.	.
=65	=65	=65
(16E-\LL	8a-^\ (8ff^\L	mf
16e-\	.	.
16G\	8g'\ 8ee-'\)	.
16e-\	.	.
16E-\	8g'\ 8ee-'\J	.
16e-\JJ)	.	.
=66	=66	=66
(16BB-\LL	8g^\ (8ee-^\L	.
16B-\	.	.
16F\	8f'\ 8dd'\)	.
16B-\	.	.
16BB-\	8f'\ 8dd'\J	.
16B-\JJ)	.	.
=67	=67	=67
(16C\LL	(8f^/ 8dd^/L	.
16c\	.	.
16G\	8e-'/) 8cc'/	.
16c\	.	.
16C\	8e-'/ 8cc'/J	.
16c\JJ)	.	.
=68	=68	=68
(16GG/LL	(8e-^/ 8cc^/L	.
16G/	.	.
16D/	8d'/) 8bn'/	.
16G/	.	.
16GG/	8d'/ 8g'/J	p
16G/JJ)	.	.
=69	=69	=69
(16AA-/LL	(8d^/ 8g^/L	.
16F/	.	.
16C/	8c'/) 8f'/	.
16F/	.	.
16AA-/	8c'/ 8d'/J	.
16F/JJ)	.	.
=70	=70	=70
(16GG/LL	(8c^/ 8e-^/L	.
16G/	.	.
16D/	8Bn'/) 8d'/	mf
16G/	.	.
16GG/	8B'/ 8g'/J	.
16G/JJ)	.	.
=71	=71	=71
(16AA-/LL	8c^/ (8g^/L	.
16F/	.	.
16C/	8c'/ 8f'/)	.
16F/	.	.
16AA-/	8d'/ 8cc'/J	.
16F/JJ)	.	.
=72	=72	=72
*	*^	*
(16GG/LL	(8cc/L	8e-\L	.
16G/	.	.	.
16D/	16bn/L	8g\	.
16G/	16cc/J	.	.
16GG/	8dd'/J)	8f'\J	.
16G/JJ)	.	.	.
=73	=73	=73	=73
16AA-/LL	(8dd/L	[8e-^\L	.
16F/	.	.	.
16C/	8cc'/)	8e-'\]	.
16F/	.	.	.
16AA-/	([8cc/J	8f'\J	.
16F/JJ	.	.	.
=74	=74	=74	=74
(8GG/L	8cc/L]	8e-\L	.
8G/J)	16bn/L	8d\J	.
.	16cc/J	.	.
8r	8dd/J)	8r	.
*	*v	*v	*
=75	=75	=75
(16c\LL	8r	.
16g\	.	.
16e-\	8gg'\L	p
16g\	.	.
16c\	8gg'\J	.
16g\JJ)	.	.
=76	=76	=76
(16Bn\LL	(8gg^\L	<
16g\	.	.
16d\	8ff'\) 8gg'\	.
16g\	.	.
16B\	8ff'\ 8gg'\J	.
16g\JJ)	.	.
=77	=77	=77
(16c\LL	(8ff^\ 8gg^\L	.
16g\	.	.
16e-\	8ee-'\) 8gg'\	.
16g\	.	.
16c\	8ee-'\ 8gg'\J	.
16g\JJ)	.	.
=78	=78	=78
(16G\LL	(8ee-^\ 8gg^\L	.
16g\	.	.
16d\	8dd'\) 8gg'\	.
16g\	.	.
16G\	8dd'\ 8gg'\J	.
16g\JJ)	.	.
=79	=79	=79
(16A-\LL	8dd^\ (8gg^\L	mf
16f\	.	.
16c\	8cc'\ 8ff'\)	.
16f\	.	.
16A-\	8cc'\ 8ff'\J	>
16f\JJ)	.	.
=80	=80	=80
(16G\LL	8cc^\ (8ee-^\L	.
16g\	.	.
16d\	8cc'\ 8dd'\)	.
16g\	.	.
16G\	8bn'\ 8dd'\J	.
16g\JJ)	.	.
=81	=81	=81
(16c\LL	8cc'\ 8ee-'\	p
16g\	.	.
16e-\	8gg'\L	.
16g\	.	.
16c\	8gg'\J	.
16g\JJ)	.	.
=82	=82	=82
(16Bn\LL	(8gg^\L	<
16g\	.	.
16d\	8ff'\) 8gg'\	.
16g\	.	.
16B\	8ff'\ 8gg'\J	.
16g\JJ)	.	.
=83	=83	=83
(16c\LL	(8ff^\ 8gg^\L	.
16g\	.	.
16e-\	8ee-'\) 8gg'\	.
16g\	.	.
16c\	8ee-'\ 8gg'\J	.
16g\JJ)	.	.
=84	=84	=84
(16G\LL	(8ee-^\ 8gg^\L	.
16g\	.	.
16e-\	8dd-'\) 8bb-'\	.
16g\	.	.
16G\	8dd-'\ 8bb-'\J	.
16g\JJ)	.	.
=85	=85	=85
(16A-\LL	8dd-^\ (8bb-^\L	mf
16e-\	.	.
16c\	8cc'\ 8aa-'\)	.
16e-\	.	.
16A-\	8cc'\ 8aa-'\J	.
16e-\JJ)	.	.
=86	=86	=86
(16E-\LL	8cc^\ (8aa-^\L	.
16e-\	.	.
16B-\	8b-'\ 8gg'\)	.
16e-\	.	.
16En\	8b-'\ 8gg'\J	.
16c\JJ)	.	.
=87	=87	=87
(16F\LL	8b-^\ (8gg^\L	.
16f\	.	.
16c\	8a-'\ 8ff'\)	.
16f\	.	.
16F\	8a-'\ 8ff'\J	.
16f\JJ)	.	.
=88	=88	=88
(16C\LL	8a-^\ (8ff^\L	.
16c\	.	.
16G\	8g'\ 8een'\)	.
16c\	.	.
16C\	8en'\ 8cc'\J	p
16c\JJ)	.	.
=89	=89	=89
(16D-\LL	8f^/ (8cc^/L	.
16B-\	.	.
16F\	8f'/ 8b-'/)	.
16B-\	.	.
16D-\	8f'/ 8g'/J	.
16B-\JJ)	.	.
=90	=90	=90
*k[b-]	*k[b-]	*k[b-]
(16C\LL	(8f^/ 8a-^/L	.
16c\	.	.
16G\	8e-'/) 8g'/	.
16c\	.	.
16C\	8e-'/ 8cc'/J	mf
16c\JJ)	.	.
=91	=91	=91
(16D-\LL	8f^\ (8cc^\L	.
16B-\	.	.
16F\	8f'\ 8b-'\)	.
16B-\	.	.
16D-\	8g'\ 8ff'\J	.
16B-\JJ)	.	.
=92	=92	=92
*	*^	*
(16C\LL	(8ff/L	8a-\L	.
16c\	.	.	.
16G\	16een/L	8cc\	.
16c\	16ff/J	.	.
16C\	8gg'/J)	8b-'\J	.
16c\JJ)	.	.	.
=93	=93	=93	=93
16D-\LL	(8gg^/L	8a-\L	.
16B-\	.	.	.
16F\	8ff'/)	8a-'\	.
16B-\	.	.	.
16D-\	([8ff'/J	8b-'\J	.
16B-\JJ	.	.	.
=94	=94	=94	=94
(8CC/L	8ff/L]	8a-\L	.
8C'/J)	16een/L	8g\J	.
.	16ff/J	.	.
8r	8gg/J)	8r	.
*clefG2	*v	*v	*
=95	=95	=95
8gg\L	16bb-\LL	f
.	(16ccc\	.
8ff\	16ddd-\	.
.	16aa-\	.
8een\J	16gg\	.
.	16aa-\JJ	.
=96	=96	=96
8dd-\L	16bb-\LL	>
.	16ff\	.
8cc\	16een\	.
.	16ff\	.
8b-\J	16gg\	.
.	16dd-\JJ	.
=97	=97	=97
8a-/L	16cc\LL	.
.	16ddn\	.
8g/	16een\	.
.	16b-\	.
8f/J	16a-\	.
.	16bn\JJ	.
=98	=98	=98
8e-/L	16g\LL	p
.	16cc\	.
8d/	16bn\	.
.	16cc\	.
8c/J	16dd\	.
.	16ee-\JJ	.
=99	=99	=99
8d/L	16f\LL)	<
.	(16ff\	.
8c/	16ee-\	.
.	16dd\	.
8Bn/J	16gg\	.
.	16ff\JJ	.
*clefF4	*	*
=100	=100	=100
*^	*	*
4.c/	(8C\L	16ee-\LL	.
.	.	16dd\	.
.	8D\	16cc\	.
.	.	16b-\	.
.	8E-\J)	16a-\	.
.	.	16g\JJ)	.
=101	=101	=101	=101
*	*	*^	*
4.c/	(8F\L	4.cc/	(16a-\LL	.
.	.	.	16g\	.
.	8G\	.	16f\	.
.	.	.	16e-\	.
.	8A-\J)	.	16d\	.
.	.	.	16c\JJ)	.
*v	*v	*	*	*
=102	=102	=102	=102
4.GG/ 4.G/	(4.bn/	16g\LL	f
.	.	16a-\	.
.	.	16g\	.
.	.	16f\	.
.	.	16e-\	.
.	.	16d\JJ)	.
=103	=103	=103	=103
4.AA-/ 4.F/	4.cc/	(16c\LL	.
.	.	16d\	.
.	.	16e-\	.
.	.	16f\	.
.	.	16g\	.
.	.	16a-\JJ)	.
=104	=104	=104	=104
4.GG/ 4.G/	4.bn/	(16g\LL	.
.	.	16a-\	.
.	.	16g\	.
.	.	16f\	.
.	.	16e-\	.
.	.	16d\JJ)	.
=105	=105	=105	=105
4.AA-/ 4.F/	[4.cc/	(16c\LL	.
.	.	16d\	.
.	.	16e-\	.
.	.	16f\	.
.	.	16g\	.
.	.	16f#\JJ	.
=106	=106	=106	=106
4.GG/ 4.G/	8cc/L]	4.g\)	.
.	16bn/L	.	.
.	16cc/J	.	.
.	8dd'/J	.	.
*	*v	*v	*
=107	=107	=107
16g\LL	(16b-\LL	p
16f\	16cc\	.
16e-\	16dd\	.
16d\	16ee-\	.
16c\	16ff\	.
16B-\JJ	16gg\JJ	.
=108	=108	=108
16c\LL	16ee-\LL	.
16B-\	16ff\	.
16A\	16gg\	.
16G\	16aa\	.
16F\	16bb-\	.
16E-\JJ	16ccc\JJ)	.
=109	=109	=109
16g\LL	(16b-\LL	.
16f\	16cc\	.
16e-\	16dd\	.
16d\	16ee-\	.
16c\	16ff\	.
16B-\JJ	16gg\JJ	.
=110	=110	=110
*k[]	*k[]	*k[]
16c\LL	16ee\LL	.
16B\	16ff\	.
16A\	16gg\	.
16G\	16aa\	.
16F\	16bb\	.
16E\JJ	16ccc\JJ)	.
=111	=111	=111
16F/LL	(16aa\LL	<
16E/	16bb\	.
16D/	16ccc\	.
16C/	16ddd\	.
16BB/	16eee\	.
16AA/JJ	16fff\JJ	.
=112	=112	=112
4GG/	16gg\LL	.
.	16fff\	.
.	16eee\	.
.	16ddd\	.
8C/	16eee\	.
.	16ccc\JJ	.
=113	=113	=113
8F\L	16ff\LL	f
.	16ddd\	.
8G\	16ee\	.
.	16ccc\	.
8GG'\J	16dd\	.
.	16bb\JJ	.
=114	=114	=114
4.CC/	16ccc\LL	.
.	16gg\	.
.	16ee\	>
.	16gg\	.
.	16cc\	.
.	16aa\JJ)	.
=115	=115	=115
16g\LL	(16b\LL	p
16f\	16cc\	.
16e\	16dd\	.
16d\	16ee\	.
16c\	16ff\	.
16B\JJ	16gg\JJ	.
=116	=116	=116
16c\LL	16ee\LL	.
16B\	16ff\	.
16A\	16gg\	.
16G\	16aa\	.
16F\	16bb\	.
16E\JJ	16ccc\JJ)	.
=117	=117	=117
16g\LL	(16b\LL	.
16f\	16cc\	.
16e\	16dd\	.
16d\	16ee\	.
16c\	16ff\	.
16B\JJ	16gg\JJ	.
=118	=118	=118
16c\LL	16ee\LL	.
16B\	16ff\	.
16A\	16gg\	.
16G\	16aa\	.
16F\	16bb\	.
16E\JJ	16ccc\JJ)	.
=119	=119	=119
16F/LL	(16aa\LL	<
16E/	16bb\	.
16D/	16ccc\	.
16C/	16ddd\	.
16BB/	16eee\	.
16AA/JJ	16fff\JJ	.
=120	=120	=120
4GG/	16gg\LL	.
.	16fff\	.
.	16eee\	.
.	16ddd\	.
8C/	16eee\	.
.	16ccc\JJ	.
=121	=121	=121
8F\L	16ff\LL	f
.	16ddd\	.
8G\	16ee\	.
.	16ccc\	.
8GG'\J	16dd\	.
.	16bb\JJ	.
=122	=122	=122
16C'/	8ee'\ 8ccc'\)	.
*clefG2	*	*
(16b/LL	.	.
16cc/	8r	.
16g/	.	.
16a/	8r	.
16e/JJ	.	.
=123	=123	=123
16f/LL	8r	.
16a/	.	.
16g/	8ccc'\ 8ddd'\L	.
16f/	.	.
16e/	8bb'\ 8fff'\J	.
16d/JJ	.	.
=124	=124	=124
16c/LL)	8ccc'\ 8eee'\	.
(16b/	.	.
16cc/	8r	.
16g/	.	.
16a/	8r	.
16e/JJ	.	.
=125	=125	=125
*	*^	*
16f/LL	8r	8r	.
16a/	.	.	.
*	*v	*v	*
16g/	8ccc'\ 8ddd'\L	.
16f/	.	.
16e/	8bb'\ 8fff'\J	.
16d/JJ	.	.
=126	=126	=126
16c/LL)	8ccc'\ 8eee'\	.
(16b/	.	.
16cc/	8r	.
16g/	.	.
16a/	8r	.
16e/JJ	.	.
=127	=127	=127
16f/LL	8r	.
16a/	.	.
16g/	8ccc'\ 8ddd'\L	.
16f/	.	.
16e/	8bb'\ 8fff'\J	.
16d/JJ)	.	.
*clefF4	*	*
=128	=128	=128
(8C\L	16eee\LL	.
.	16bb\	.
8E\	16ccc\	.
.	16gg\	.
8F\J)	16aa\	.
.	16ee\JJ	.
=129	=129	=129
(8F\L	16ff\LL	.
.	16aa\	.
8G\)	16gg\	.
.	16ff\	.
8GG'\J	16ee\	.
.	16dd\JJ	.
=130	=130	=130
(8C\L	16cc/LL	.
.	16b/	.
8E\	16cc/	.
.	16g/	.
8F\J)	16a/	.
.	16e/JJ	.
=131	=131	=131
(8FF/L	16f/LL	.
.	16a/	.
8GG/)	16g/	.
.	16f/	.
8GG'/J	16e/	.
.	16d/JJ	.
=132	=132	=132
*^	*	*
16c/LL	(8CC\L	4.r	.
16B/	.	.	.
16c/	8EE\	.	.
16G/	.	.	.
16A/	8FF\J)	.	.
16E/JJ	.	.	.
=133	=133	=133	=133
16F/LL	(8FF\L	4.r	.
16A/	.	.	.
16G/	8GG\)	.	.
16F/	.	.	.
16E/	8GGG'\J	.	.
16D/JJ	.	.	.
=134	=134	=134	=134
4.C/	4.CC\	4.r	.
*v	*v	*	*
==:|!	==:|!	==:|!
*-	*-	*-
!!!ENC: Kelly Leistikow
!!!END: 2005/07/26
!!!ONB: Translated to Humdrum from MusicXML by Craig Sapp 2005/07/26
